documentation/mouse_button.svg

<?xml version="1.0" encoding="UTF-8" standalone="no"?>
<!-- Created with Inkscape (http://www.inkscape.org/) -->

<svg
   xmlns:dc="http://purl.org/dc/elements/1.1/"
   xmlns:cc="http://creativecommons.org/ns#"
   xmlns:rdf="http://www.w3.org/1999/02/22-rdf-syntax-ns#"
   xmlns:svg="http://www.w3.org/2000/svg"
   xmlns="http://www.w3.org/2000/svg"
   version="1.1"
   width="215.60001"
   height="62"
   id="svg2">
  <metadata
     id="metadata31">
    <rdf:RDF>
      <cc:Work
         rdf:about="">
        <dc:format>image/svg+xml</dc:format>
        <dc:type
           rdf:resource="http://purl.org/dc/dcmitype/StillImage" />
        <dc:title></dc:title>
      </cc:Work>
    </rdf:RDF>
  </metadata>
  <defs
     id="defs29" />
  <g
     transform="matrix(2,0,0,2,0,7.400003)"
     id="g4">
    <filter
       height="1.3"
       color-interpolation-filters="sRGB"
       id="dropshadow">
      <feGaussianBlur
         id="feGaussianBlur7"
         stdDeviation="3"
         in="SourceAlpha" />
      <feOffset
         id="feOffset9"
         result="offsetblur"
         dy="2"
         dx="2" />
      <feComponentTransfer
         id="feComponentTransfer11">
        <feFuncA
           id="feFuncA13"
           slope="0.2"
           type="linear" />
      </feComponentTransfer>
      <feMerge
         id="feMerge15">
        <feMergeNode
           id="feMergeNode17" />
        <feMergeNode
           id="feMergeNode19"
           in="SourceGraphic" />
      </feMerge>
    </filter>
    <path
       d="m 0.5,8.5 c 0,-3.6651914 3.3348086,-7 7,-7 l 1,0 0,-4 88,0 0,19 0,4 -88,0 0,-4 0,-1 -1,0 c -3.6651914,0 -7,-3.334809 -7,-7 z"
       id="path21"
       style="fill:#ff0066;fill-opacity:1;stroke:#ef003e;stroke-width:1;stroke-linecap:round;stroke-opacity:1;filter:url(#dropshadow)" />
    <text
       id="text23"
       style="font-size:10px;text-anchor:end;fill:#000000;font-family:Sans">
      <tspan
         x="87"
         y="13"
         id="tspan25">mouse button</tspan>
    </text>
  </g>
</svg>

<svg xmlns="http://www.w3.org/2000/svg" width="215.60000000000002" height="54.6"><g transform="scale(2, 2)"><filter id="dropshadow" height="130%">   <feGaussianBlur in="SourceAlpha" stdDeviation="3"/>   <feOffset dx="2" dy="2" result="offsetblur"/>   <feComponentTransfer xmlns="http://www.w3.org/2000/svg">     <feFuncA type="linear" slope="0.2"/>   </feComponentTransfer>   <feMerge>     <feMergeNode/>     <feMergeNode in="SourceGraphic"/>   </feMerge> </filter><path d="m0.5 8.5 A 7 7 90 0 1 7.5 1.5 L 8.5 1.5 L 8.5 0.5 L 96.5 0.5 L 96.5 16.5 L 96.5 20.5 L 8.5 20.5 L 8.5 16.5 L 8.5 15.5 L 7.5 15.5 A 7 7 90 0 1 0.5 8.5 z" style="fill:#ff0066;fill-opacity:1;stroke:#ef003e;stroke-width:1;stroke-linecap:round;stroke-opacity:1;filter:url(#dropshadow);" /><text style="font-size:10px;fill:#000000;font-family:Sans;text-anchor:end"><tspan x="87" y="13">mouse button</tspan></text></g></svg>
